!!!COM: Mozart, Wolfgang Amadeus
!!!OTL: Musikalische Würfelspiele, Kontre-Tänze
!!!SCA: K<sup>6</sup> Anh. C30.01 (K<sup>3</sup> Anh. 294d)
**kern	**kern
*staff2	*staff2
*clefF4	*clefG2
*M2/4	*M2/4
*MM110	*MM110
*>[A,A1,A,A2,B]	*>[A,A1,A,A2,B]
*>norep[A,A2,B]	*>norep[A,A2,B]
*>A	*>A
=33	=33
4C	16cc
.	16c
.	16e
.	16g
4C	16cc
.	16ee
.	16gg
.	16ccc
=150	=150
16C	8gg
16E	.
16G	8ee
16E	.
4C	16cc
.	16ee
.	16gg
.	16ee
=8	=8
4GG	8dd
.	8ff
4GG	8b
.	8dd
=69	=69
4C	8cc
.	16g
.	16e
4r	8c
.	8c
=56	=56
8D	8dd
16F#	8dd
16A	.
16d	8ff#
16A	.
16F#	8ff#
16D	.
=52	=52
16BB	8gg
16GG	.
16BB	8bb
16D	.
16G	8gg
16D	.
16BB	8dd
16GG	.
=132	=132
16C	8ee
16A	.
16F#	4cc
16A	.
16AA	.
16D	.
16C	16a
16D	16f#
=130	=130
*>A1	*>A1
4GG	4g 4b 4gg
16G	4r
16F	.
16E	.
16D	.
=130:|!	=130:|!
*>A2	*>A2
4GG	4g 4b 4gg
16GG	4r
16AA	.
16BB	.
16C#	.
=116||	=116||
*>B	*>B
8D	8dd
16C#	4ff#
16D	.
16Cn	.
16D	.
16C	8aa
16D	.
=124	=124
4G	8b
.	8d
4GG	8gg
.	8bb
=26	=26
4C	8ee
.	8cc
4C	8gg
.	8ee
=126	=126
4GG	8b
.	8dd
16G	4g
16F	.
16E	.
16D	.
=134	=134
4C	16cc
.	16ee
.	16gg
.	16ee
4r	16cc
.	16g
.	16cc
.	16ee
=48	=48
4C	8cc
.	16cc
.	16ee
4r	8gg
.	16gg
.	16ee
=2	=2
4GG	8dd
.	8ff
4GG	8b
.	8dd
=41	=41
4C	4cc
4CC	4c
==	==
*-	*-
